src/images/pages/dmt5_signals/additional_income.svg

<svg width="64" height="64" viewBox="0 0 64 64" fill="none" xmlns="http://www.w3.org/2000/svg">
<path d="M30.9676 47.4839H33.0321C33.6019 47.4839 34.0644 47.9474 34.0644 48.5161H36.1289C36.1289 46.8088 34.7395 45.4194 33.0321 45.4194V43.3549H30.9676V45.4194C29.2603 45.4194 27.8708 46.8088 27.8708 48.5161C27.8708 50.2235 29.2603 51.6129 30.9676 51.6129H33.0321C33.6019 51.6129 34.0644 52.0764 34.0644 52.6452C34.0644 53.214 33.6019 53.6774 33.0321 53.6774H30.9676C30.3978 53.6774 29.9354 53.214 29.9354 52.6452H27.8708C27.8708 54.3525 29.2603 55.742 30.9676 55.742V57.8065H33.0321V55.742C34.7395 55.742 36.1289 54.3525 36.1289 52.6452C36.1289 50.9378 34.7395 49.5484 33.0321 49.5484H30.9676C30.3978 49.5484 29.9354 49.0849 29.9354 48.5161C29.9354 47.9474 30.3978 47.4839 30.9676 47.4839Z" fill="#2A3052"/>
<path d="M61.4297 42.8769L56.032 36.129L58.8067 32.6596C59.4932 31.8018 59.871 30.7252 59.871 29.6279C59.871 27.2 58.0728 25.2005 55.7419 24.8475V3.09677C55.7419 1.38942 54.3525 0 52.6452 0H11.3548C9.64748 0 8.25806 1.38942 8.25806 3.09677V26.8387H8.08052C5.90245 26.8387 4.12903 28.6111 4.12903 30.7912C4.12903 31.8462 4.53987 32.8382 5.28619 33.5855L7.9071 36.2065L2.57032 42.8769C0.913548 44.9476 0 47.551 0 50.2049C0 56.673 5.26245 61.9355 11.7306 61.9355H13.0426C16.225 61.9355 19.1845 60.6699 21.3801 58.432C23.4519 61.7672 27.137 64 31.3435 64H32.6555C36.8619 64 40.5481 61.7672 42.6188 58.432C44.8144 60.6699 47.7739 61.9355 50.9564 61.9355H52.2684C58.7375 61.9355 64 56.673 64 50.2049C64 47.551 63.0864 44.9476 61.4297 42.8769ZM57.8064 29.6279C57.8064 30.2586 57.5897 30.8769 57.1943 31.3703L54.2132 35.0968H48.9435L45.9716 32.1259C45.6155 31.7688 45.4194 31.295 45.4194 30.7912C45.4194 29.7497 46.2658 28.9032 47.3063 28.9032H47.6614C48.7019 28.9032 49.5484 29.7497 49.5484 30.7912V30.9677H51.6129V30.7912V29.6279C51.6129 28.0898 52.864 26.8387 54.401 26.8387H55.0183C56.5554 26.8387 57.8064 28.0898 57.8064 29.6279ZM41.7972 42.8759C41.5195 43.2217 41.2697 43.5881 41.0343 43.9628L36.4191 38.1935L39.1938 34.7241C39.5943 34.2235 39.8761 33.6434 40.0526 33.0323H44.0588C44.1941 33.2274 44.3417 33.4142 44.513 33.5855L47.1339 36.2065L41.7972 42.8759ZM22.9657 43.9628C22.7303 43.5881 22.4805 43.2217 22.2039 42.8759L16.8062 36.129L19.2826 33.0323H23.7595C23.8039 34.0201 24.1961 34.945 24.8991 35.6501L27.52 38.271L22.9657 43.9628ZM49.5484 27.3404C48.9848 27.0307 48.3479 26.8387 47.6614 26.8387H47.4839V8.25806H41.2903V30.9677H40.1848C40.0588 30.1326 39.7213 29.375 39.2258 28.735V12.3871H33.0323V27.1804C32.2075 27.5025 31.5025 28.0464 30.9677 28.736V18.5806H24.7742V30.2152C24.5677 30.4434 24.3933 30.6963 24.2436 30.9677H22.7097V14.4516H16.5161V24.8475C16.2777 24.8114 16.0403 24.7742 15.7925 24.7742H15.1752C14.9275 24.7742 14.689 24.8114 14.4516 24.8475V6.19355H49.5484V27.3404ZM43.3548 30.7912C43.3548 30.8511 43.3693 30.9089 43.3724 30.9677H43.3548V30.7912V10.3226H45.4194V27.3404C44.1961 28.0124 43.3548 29.2986 43.3548 30.7912ZM37.1613 27.1804C36.6152 26.9667 36.0258 26.8387 35.4054 26.8387H35.0968V14.4516H37.1613V27.1804ZM28.9032 29.0023C28.6276 28.9404 28.3427 28.9032 28.0485 28.9032H27.6934C27.3992 28.9032 27.1143 28.9404 26.8387 29.0023V20.6452H28.9032V29.0023ZM18.5806 25.6681V16.5161H20.6452V29.6279V30.9677H20.4397C20.5646 30.5332 20.6452 30.0841 20.6452 29.6279C20.6452 27.9907 19.8255 26.5476 18.5806 25.6681ZM29.3306 37.1613L26.3587 34.1905C26.0026 33.8333 25.8064 33.3595 25.8064 32.8557C25.8064 31.8142 26.6529 30.9677 27.6934 30.9677H28.0485C29.089 30.9677 29.9355 31.8142 29.9355 32.8557V33.0323H32V32.8557V31.6924C32 30.1543 33.2511 28.9032 34.7881 28.9032H35.4054C36.9425 28.9032 38.1935 30.1543 38.1935 31.6924C38.1935 32.3231 37.9768 32.9414 37.5814 33.4348L34.6003 37.1613H29.3306ZM11.3548 2.06452H52.6452C53.215 2.06452 53.6774 2.528 53.6774 3.09677V24.8475C52.9177 24.9621 52.2147 25.2428 51.6129 25.6681V4.12903H12.3871V25.6681C11.6883 26.1615 11.1298 26.8346 10.7706 27.6201C10.6292 27.5159 10.4785 27.4261 10.3226 27.3414V3.09677C10.3226 2.528 10.785 2.06452 11.3548 2.06452ZM6.19355 30.7912C6.19355 29.7497 7.04 28.9032 8.08052 28.9032H8.43561C9.47613 28.9032 10.3226 29.7497 10.3226 30.7912V30.9677H12.3871V30.7912V29.6279C12.3871 28.0898 13.6382 26.8387 15.1752 26.8387H15.7925C17.3295 26.8387 18.5806 28.0898 18.5806 29.6279C18.5806 30.2586 18.3639 30.8769 17.9685 31.3703L14.9874 35.0968H9.71768L6.74581 32.1259C6.38968 31.7688 6.19355 31.295 6.19355 30.7912ZM13.0436 59.871H11.7316C6.40103 59.871 2.06452 55.5345 2.06452 50.2049C2.06452 48.0175 2.81703 45.8735 4.18374 44.1662L9.78581 37.1613H14.9874L20.5915 44.1662C20.9817 44.6544 21.3068 45.1892 21.5959 45.7425C20.3117 47.6655 19.6129 49.9479 19.6129 52.2694C19.6129 53.7404 19.8968 55.1422 20.3933 56.4408C18.5486 58.6199 15.9071 59.871 13.0436 59.871ZM32.6565 61.9355H31.3445C26.0139 61.9355 21.6774 57.599 21.6774 52.2694C21.6774 50.0821 22.4299 47.9381 23.7966 46.2307L29.3987 39.2258H34.6003L40.2034 46.2307C41.5701 47.9381 42.3226 50.0821 42.3226 52.2694C42.3226 57.599 37.9861 61.9355 32.6565 61.9355ZM52.2694 59.871H50.9574C48.0939 59.871 45.4524 58.6199 43.6077 56.4408C44.1032 55.1422 44.3871 53.7394 44.3871 52.2694C44.3871 49.9479 43.6883 47.6655 42.4031 45.7435C42.6921 45.1902 43.0173 44.6555 43.4085 44.1662L49.0116 37.1613H54.2132L59.8163 44.1662C61.183 45.8735 61.9355 48.0175 61.9355 50.2049C61.9355 55.5345 57.599 59.871 52.2694 59.871Z" fill="#2A3052"/>
<path d="M12.3872 43.3548C13.5257 43.3548 14.4517 44.2807 14.4517 45.4193H16.5162C16.5162 43.1422 14.6643 41.2903 12.3872 41.2903C10.11 41.2903 8.25812 43.1422 8.25812 45.4193H6.1936V47.4838H8.25812V49.5484H6.1936V51.6129H8.25812C8.25812 53.89 10.11 55.7419 12.3872 55.7419C14.6643 55.7419 16.5162 53.89 16.5162 51.6129H14.4517C14.4517 52.7514 13.5257 53.6774 12.3872 53.6774C11.2486 53.6774 10.3226 52.7514 10.3226 51.6129H12.3872V49.5484H10.3226V47.4838H12.3872V45.4193H10.3226C10.3226 44.2807 11.2486 43.3548 12.3872 43.3548Z" fill="#2A3052"/>
<path d="M57.5041 42.0201L56.0445 40.5605L51.613 44.992L47.1815 40.5605L45.7219 42.0201L50.5808 46.879V47.4839H48.5162V49.5484H50.5808V51.6129H48.5162V53.6774H50.5808V55.742H52.6453V53.6774H54.7098V51.6129H52.6453V49.5484H54.7098V47.4839H52.6453V46.879L57.5041 42.0201Z" fill="#2A3052"/>
</svg>

<svg width="64" height="64" fill="none" xmlns="http://www.w3.org/2000/svg"><path d="M30.968 47.484h2.064c.57 0 1.032.463 1.032 1.032h2.065a3.1 3.1 0 00-3.097-3.097v-2.064h-2.064v2.064a3.1 3.1 0 00-3.097 3.097 3.1 3.1 0 003.097 3.097h2.064a1.033 1.033 0 010 2.064h-2.064c-.57 0-1.033-.463-1.033-1.032h-2.064a3.1 3.1 0 003.097 3.097v2.065h2.064v-2.065a3.1 3.1 0 003.097-3.097 3.1 3.1 0 00-3.097-3.097h-2.064a1.033 1.033 0 010-2.064z" fill="#2A3052"/><path d="M61.43 42.877l-5.398-6.748 2.775-3.47a4.87 4.87 0 001.064-3.031c0-2.428-1.798-4.427-4.13-4.78V3.096A3.1 3.1 0 0052.646 0h-41.29a3.1 3.1 0 00-3.097 3.097v23.742h-.177a3.957 3.957 0 00-3.952 3.952c0 1.055.41 2.047 1.157 2.795l2.621 2.62-5.337 6.67A11.774 11.774 0 000 50.206c0 6.468 5.262 11.73 11.73 11.73h1.313c3.182 0 6.142-1.265 8.337-3.503C23.452 61.767 27.137 64 31.343 64h1.313c4.206 0 7.892-2.233 9.963-5.568a11.607 11.607 0 008.337 3.503h1.312c6.47 0 11.732-5.262 11.732-11.73 0-2.654-.914-5.257-2.57-7.328zm-3.624-13.25c0 .632-.216 1.25-.612 1.743l-2.98 3.727h-5.27l-2.972-2.971a1.89 1.89 0 011.335-3.223h.354a1.89 1.89 0 011.887 1.888v.177h2.065v-1.34a2.792 2.792 0 012.788-2.79h.617a2.792 2.792 0 012.788 2.79zM41.797 42.877c-.277.346-.527.712-.763 1.087l-4.615-5.77 2.775-3.469c.4-.5.682-1.08.859-1.692h4.006c.135.195.283.382.454.554l2.62 2.62-5.336 6.67zm-18.831 1.087a11.678 11.678 0 00-.762-1.087l-5.398-6.747 2.477-3.097h4.476a3.926 3.926 0 001.14 2.618l2.621 2.621-4.554 5.692zM49.548 27.34a3.902 3.902 0 00-1.887-.501h-.177V8.259H41.29v22.709h-1.105a4.803 4.803 0 00-.96-2.233V12.387h-6.193V27.18a4.847 4.847 0 00-2.064 1.556V18.581h-6.194v11.634c-.206.228-.38.481-.53.753H22.71V14.452h-6.194v10.396c-.238-.037-.476-.074-.723-.074h-.618c-.248 0-.486.037-.723.073V6.195h35.096V27.34zm-6.193 3.451c0 .06.014.118.017.177h-.017V10.323h2.064V27.34c-1.223.672-2.064 1.959-2.064 3.451zm-6.194-3.61a4.804 4.804 0 00-1.756-.342h-.308V14.452h2.064V27.18zm-8.258 1.821a3.89 3.89 0 00-.854-.099h-.356c-.294 0-.579.037-.854.1v-8.358h2.064v8.357zm-10.322-3.334v-9.152h2.064v14.452h-.205c.125-.435.205-.884.205-1.34 0-1.637-.82-3.08-2.064-3.96zm10.75 11.493l-2.972-2.97a1.89 1.89 0 011.335-3.223h.354a1.89 1.89 0 011.888 1.888v.176H32V31.692a2.792 2.792 0 012.788-2.789h.617a2.792 2.792 0 012.788 2.79c0 .63-.216 1.248-.612 1.742l-2.98 3.726h-5.27zM11.355 2.065h41.29c.57 0 1.032.463 1.032 1.032v21.75a4.805 4.805 0 00-2.064.821V4.13H12.387v21.54a4.865 4.865 0 00-1.616 1.951 3.836 3.836 0 00-.448-.279V3.097c0-.569.462-1.032 1.032-1.032zM6.194 30.79a1.89 1.89 0 011.887-1.888h.355a1.89 1.89 0 011.887 1.888v.177h2.064v-1.34a2.792 2.792 0 012.788-2.79h.617a2.792 2.792 0 012.789 2.79c0 .63-.217 1.249-.613 1.742l-2.98 3.727h-5.27l-2.972-2.971a1.878 1.878 0 01-.552-1.335zm6.85 29.08h-1.312c-5.331 0-9.667-4.337-9.667-9.666 0-2.188.752-4.331 2.119-6.039l5.602-7.005h5.201l5.604 7.005c.39.488.716 1.023 1.005 1.577a11.788 11.788 0 00-1.983 6.526c0 1.471.284 2.873.78 4.172-1.844 2.179-4.486 3.43-7.35 3.43zm19.613 2.064h-1.312c-5.331 0-9.668-4.336-9.668-9.666 0-2.187.753-4.33 2.12-6.038l5.602-7.005H34.6l5.603 7.005a9.697 9.697 0 012.12 6.038c0 5.33-4.337 9.666-9.666 9.666zm19.612-2.064h-1.312c-2.863 0-5.505-1.251-7.35-3.43.496-1.299.78-2.702.78-4.172 0-2.321-.699-4.603-1.984-6.526a9.694 9.694 0 011.005-1.577l5.604-7.005h5.201l5.603 7.005a9.696 9.696 0 012.12 6.039c0 5.33-4.337 9.666-9.667 9.666z" fill="#2A3052"/><path d="M12.387 43.355c1.139 0 2.065.926 2.065 2.064h2.064a4.133 4.133 0 00-4.129-4.129 4.133 4.133 0 00-4.129 4.13H6.194v2.064h2.064v2.064H6.194v2.065h2.064a4.133 4.133 0 004.13 4.129 4.133 4.133 0 004.128-4.13h-2.064a2.067 2.067 0 01-2.065 2.065 2.067 2.067 0 01-2.064-2.064h2.064v-2.065h-2.064v-2.064h2.064v-2.065h-2.064c0-1.138.926-2.064 2.064-2.064zM57.504 42.02l-1.46-1.46-4.431 4.432-4.431-4.431-1.46 1.46 4.859 4.858v.605h-2.065v2.064h2.065v2.065h-2.065v2.064h2.065v2.065h2.064v-2.065h2.065v-2.064h-2.065v-2.065h2.065v-2.064h-2.065v-.605l4.86-4.859z" fill="#2A3052"/></svg>
